assets/images/ico_twt.svg

<svg width="22" height="17" viewBox="0 0 22 17" fill="none" xmlns="http://www.w3.org/2000/svg">
<path fill-rule="evenodd" clip-rule="evenodd" d="M19.256 4.20658C19.2641 4.39025 19.2685 4.57542 19.2685 4.76058C19.2685 10.3985 15.0242 16.8972 7.25886 16.8972C4.87525 16.8972 2.65636 16.1932 0.789062 14.9821C1.11924 15.0217 1.45532 15.0418 1.79584 15.0418C3.77393 15.0418 5.59322 14.3594 7.03801 13.2156C5.19139 13.1812 3.63211 11.9478 3.09512 10.2521C3.35216 10.3014 3.61734 10.329 3.88842 10.329C4.27326 10.329 4.64701 10.2783 5.00082 10.1805C3.07 9.78921 1.61561 8.06522 1.61561 5.99702C1.61561 5.9791 1.61561 5.96044 1.61635 5.94326C2.1851 6.26208 2.83585 6.45471 3.52722 6.47637C2.39562 5.71255 1.65032 4.40593 1.65032 2.92609C1.65032 2.14361 1.85788 1.41041 2.2213 0.78024C4.30206 3.36213 7.41324 5.05999 10.9203 5.23918C10.8479 4.92634 10.8118 4.60155 10.8118 4.26631C10.8118 1.91065 12.7012 0 15.0316 0C16.246 0 17.3414 0.518169 18.1125 1.34694C19.075 1.1558 19.9761 0.801893 20.7938 0.311349C20.4762 1.30812 19.8092 2.14361 18.9354 2.67223C19.79 2.56919 20.6055 2.34072 21.3596 2.001C20.7968 2.85516 20.081 3.60702 19.256 4.20658Z" fill="white"/>
</svg>

<svg width="22" height="17" fill="none" xmlns="http://www.w3.org/2000/svg"><path fill-rule="evenodd" clip-rule="evenodd" d="M19.256 4.207c.008.183.012.368.012.554 0 5.638-4.244 12.136-12.01 12.136-2.383 0-4.602-.704-6.469-1.915a8.453 8.453 0 006.249-1.766c-1.847-.035-3.406-1.268-3.943-2.964a4.208 4.208 0 001.906-.072C3.07 9.79 1.616 8.066 1.616 5.998v-.054a4.17 4.17 0 001.911.533 4.276 4.276 0 01-1.877-3.55c0-.782.208-1.516.571-2.146 2.081 2.582 5.192 4.28 8.7 4.46a4.305 4.305 0 01-.11-.974c0-2.355 1.89-4.266 4.22-4.266a4.2 4.2 0 013.082 1.347A8.37 8.37 0 0020.793.31a4.277 4.277 0 01-1.858 2.361A8.32 8.32 0 0021.36 2a8.542 8.542 0 01-2.104 2.206z" fill="#fff"/></svg>
